X: 0912
T: THE HERO'S MARCH
B: Oliver Ditson "The Boston Collection of Instrumental Music" 1910 p.91 #2
F: http://conquest.imslp.info/files/imglnks/usimg/8/8f/IMSLP175643-PMLP309456-bostoncollection00bost_bw.pdf
%: 2012 John Chambers <jc:trillian.mit.edu>
M: 4/4
L: 1/8
K: D
Bc |\
d2A>A A2A2 | A>BA>G F2A>A | G2G>G F>AG>F | E2E>E E2A2 |\
d2A>A A2A2 | A>BA>G F2A>A | B2B>B c2c>c | d2d>d d2 ||
e>f |\
g2e>e e2e2 | f2d>d d2d2 | g>fe>d c>BA>G | F2E>E E2e>f |\
g2e>e e2e2 | f2d>d d2d2 | e>gc>e d2c2 | d2d>d d2 ||
fg |\
a2f2 Adfa | g2e2 Aceg | f2d2 f2d2 | e2a2 a2fg |\
a2f2 Adfa | g2e2 Aceg | f2d2 e2c2 | d2d>d d2 |]

%%sep 1 1 500
%%sep 1 1 500
